X: 2588
T: Ballyroebuck, The
R: slide
M: 12/8
K: Gmajor
|:B2 E EDE G2 F D3|B2 E EDE B2 A d2 A|
B2 E EDE G2 F E2 A|BdB AGF E3 EFA:|
|:B2 e efe B2 ^c d2 B|e2 B BdB A2 G F2 A|
B2 e efe B2 ^c d2 A|1 BdB AGF E3 EFA:|2 BdB AGF E3 E3|

